icons/modern/leg-medium.svg

<svg width="32" height="32" viewBox="0 0 32 32" fill="none" xmlns="http://www.w3.org/2000/svg">
<g filter="url(#filter0_i_20020_4470)">
<path d="M12.5922 4.67187L24.0507 9.73803C25.6767 10.4552 26.4252 12.3454 25.7309 13.9813L21.7484 23.5312C21.4678 24.1924 21.8373 24.6959 22.264 25.0469C23.0911 25.7271 24.255 26.3179 25.036 26.3885C25.1196 26.3645 25.2079 26.3516 25.2992 26.3516C25.8234 26.3516 26.2484 26.7765 26.2484 27.3008C26.2484 27.8211 25.8297 28.2436 25.3109 28.2499L25.2992 28.25L19.02 28.25C18.0044 28.25 17.2824 27.2619 17.5909 26.2943L18.0588 24.827C18.1738 24.4664 18.2196 24.0873 18.1936 23.7097L17.9594 19.8906C17.9594 17.8828 18.5154 15.8942 19.8656 15.0937L20.1747 14.8528C20.2719 14.7617 20.2954 14.7279 20.2954 14.6409C20.2954 14.4974 20.1733 14.3843 20.0303 14.3953L19.1395 14.4633C18.2783 14.5292 17.4122 14.4831 16.5628 14.3264L9.96715 13.1094C6.92029 12.5625 5.00562 9.67742 6.02973 6.99999C6.96072 4.56601 9.85785 3.53125 12.5922 4.67187Z" fill="url(#paint0_linear_20020_4470)"/>
<path d="M12.5922 4.67187L24.0507 9.73803C25.6767 10.4552 26.4252 12.3454 25.7309 13.9813L21.7484 23.5312C21.4678 24.1924 21.8373 24.6959 22.264 25.0469C23.0911 25.7271 24.255 26.3179 25.036 26.3885C25.1196 26.3645 25.2079 26.3516 25.2992 26.3516C25.8234 26.3516 26.2484 26.7765 26.2484 27.3008C26.2484 27.8211 25.8297 28.2436 25.3109 28.2499L25.2992 28.25L19.02 28.25C18.0044 28.25 17.2824 27.2619 17.5909 26.2943L18.0588 24.827C18.1738 24.4664 18.2196 24.0873 18.1936 23.7097L17.9594 19.8906C17.9594 17.8828 18.5154 15.8942 19.8656 15.0937L20.1747 14.8528C20.2719 14.7617 20.2954 14.7279 20.2954 14.6409C20.2954 14.4974 20.1733 14.3843 20.0303 14.3953L19.1395 14.4633C18.2783 14.5292 17.4122 14.4831 16.5628 14.3264L9.96715 13.1094C6.92029 12.5625 5.00562 9.67742 6.02973 6.99999C6.96072 4.56601 9.85785 3.53125 12.5922 4.67187Z" fill="url(#paint1_radial_20020_4470)"/>
</g>
<path d="M12.5922 4.67187L24.0507 9.73803C25.6767 10.4552 26.4252 12.3454 25.7309 13.9813L21.7484 23.5312C21.4678 24.1924 21.8373 24.6959 22.264 25.0469C23.0911 25.7271 24.255 26.3179 25.036 26.3885C25.1196 26.3645 25.2079 26.3516 25.2992 26.3516C25.8234 26.3516 26.2484 26.7765 26.2484 27.3008C26.2484 27.8211 25.8297 28.2436 25.3109 28.2499L25.2992 28.25L19.02 28.25C18.0044 28.25 17.2824 27.2619 17.5909 26.2943L18.0588 24.827C18.1738 24.4664 18.2196 24.0873 18.1936 23.7097L17.9594 19.8906C17.9594 17.8828 18.5154 15.8942 19.8656 15.0937L20.1747 14.8528C20.2719 14.7617 20.2954 14.7279 20.2954 14.6409C20.2954 14.4974 20.1733 14.3843 20.0303 14.3953L19.1395 14.4633C18.2783 14.5292 17.4122 14.4831 16.5628 14.3264L9.96715 13.1094C6.92029 12.5625 5.00562 9.67742 6.02973 6.99999C6.96072 4.56601 9.85785 3.53125 12.5922 4.67187Z" fill="url(#paint2_linear_20020_4470)"/>
<path d="M12.5922 4.67187L24.0507 9.73803C25.6767 10.4552 26.4252 12.3454 25.7309 13.9813L21.7484 23.5312C21.4678 24.1924 21.8373 24.6959 22.264 25.0469C23.0911 25.7271 24.255 26.3179 25.036 26.3885C25.1196 26.3645 25.2079 26.3516 25.2992 26.3516C25.8234 26.3516 26.2484 26.7765 26.2484 27.3008C26.2484 27.8211 25.8297 28.2436 25.3109 28.2499L25.2992 28.25L19.02 28.25C18.0044 28.25 17.2824 27.2619 17.5909 26.2943L18.0588 24.827C18.1738 24.4664 18.2196 24.0873 18.1936 23.7097L17.9594 19.8906C17.9594 17.8828 18.5154 15.8942 19.8656 15.0937L20.1747 14.8528C20.2719 14.7617 20.2954 14.7279 20.2954 14.6409C20.2954 14.4974 20.1733 14.3843 20.0303 14.3953L19.1395 14.4633C18.2783 14.5292 17.4122 14.4831 16.5628 14.3264L9.96715 13.1094C6.92029 12.5625 5.00562 9.67742 6.02973 6.99999C6.96072 4.56601 9.85785 3.53125 12.5922 4.67187Z" fill="url(#paint3_radial_20020_4470)"/>
<path d="M12.5922 4.67187L24.0507 9.73803C25.6767 10.4552 26.4252 12.3454 25.7309 13.9813L21.7484 23.5312C21.4678 24.1924 21.8373 24.6959 22.264 25.0469C23.0911 25.7271 24.255 26.3179 25.036 26.3885C25.1196 26.3645 25.2079 26.3516 25.2992 26.3516C25.8234 26.3516 26.2484 26.7765 26.2484 27.3008C26.2484 27.8211 25.8297 28.2436 25.3109 28.2499L25.2992 28.25L19.02 28.25C18.0044 28.25 17.2824 27.2619 17.5909 26.2943L18.0588 24.827C18.1738 24.4664 18.2196 24.0873 18.1936 23.7097L17.9594 19.8906C17.9594 17.8828 18.5154 15.8942 19.8656 15.0937L20.1747 14.8528C20.2719 14.7617 20.2954 14.7279 20.2954 14.6409C20.2954 14.4974 20.1733 14.3843 20.0303 14.3953L19.1395 14.4633C18.2783 14.5292 17.4122 14.4831 16.5628 14.3264L9.96715 13.1094C6.92029 12.5625 5.00562 9.67742 6.02973 6.99999C6.96072 4.56601 9.85785 3.53125 12.5922 4.67187Z" fill="url(#paint4_radial_20020_4470)"/>
<path d="M12.5922 4.67187L24.0507 9.73803C25.6767 10.4552 26.4252 12.3454 25.7309 13.9813L21.7484 23.5312C21.4678 24.1924 21.8373 24.6959 22.264 25.0469C23.0911 25.7271 24.255 26.3179 25.036 26.3885C25.1196 26.3645 25.2079 26.3516 25.2992 26.3516C25.8234 26.3516 26.2484 26.7765 26.2484 27.3008C26.2484 27.8211 25.8297 28.2436 25.3109 28.2499L25.2992 28.25L19.02 28.25C18.0044 28.25 17.2824 27.2619 17.5909 26.2943L18.0588 24.827C18.1738 24.4664 18.2196 24.0873 18.1936 23.7097L17.9594 19.8906C17.9594 17.8828 18.5154 15.8942 19.8656 15.0937L20.1747 14.8528C20.2719 14.7617 20.2954 14.7279 20.2954 14.6409C20.2954 14.4974 20.1733 14.3843 20.0303 14.3953L19.1395 14.4633C18.2783 14.5292 17.4122 14.4831 16.5628 14.3264L9.96715 13.1094C6.92029 12.5625 5.00562 9.67742 6.02973 6.99999C6.96072 4.56601 9.85785 3.53125 12.5922 4.67187Z" fill="url(#paint5_radial_20020_4470)"/>
<path d="M12.5922 4.67187L24.0507 9.73803C25.6767 10.4552 26.4252 12.3454 25.7309 13.9813L21.7484 23.5312C21.4678 24.1924 21.8373 24.6959 22.264 25.0469C23.0911 25.7271 24.255 26.3179 25.036 26.3885C25.1196 26.3645 25.2079 26.3516 25.2992 26.3516C25.8234 26.3516 26.2484 26.7765 26.2484 27.3008C26.2484 27.8211 25.8297 28.2436 25.3109 28.2499L25.2992 28.25L19.02 28.25C18.0044 28.25 17.2824 27.2619 17.5909 26.2943L18.0588 24.827C18.1738 24.4664 18.2196 24.0873 18.1936 23.7097L17.9594 19.8906C17.9594 17.8828 18.5154 15.8942 19.8656 15.0937L20.1747 14.8528C20.2719 14.7617 20.2954 14.7279 20.2954 14.6409C20.2954 14.4974 20.1733 14.3843 20.0303 14.3953L19.1395 14.4633C18.2783 14.5292 17.4122 14.4831 16.5628 14.3264L9.96715 13.1094C6.92029 12.5625 5.00562 9.67742 6.02973 6.99999C6.96072 4.56601 9.85785 3.53125 12.5922 4.67187Z" fill="url(#paint6_radial_20020_4470)"/>
<g filter="url(#filter1_f_20020_4470)">
<path d="M19.8747 23.8094L21.322 24.1159C21.322 24.5654 21.5349 24.7885 21.6711 24.9503L20.7772 26.1933L20.4196 25.41L19.9994 25.6301C19.8368 25.7153 19.636 25.6517 19.5521 25.4885C19.4674 25.3239 19.5345 25.1218 19.7007 25.0404L20.1982 24.797L19.8747 23.8094Z" fill="url(#paint7_linear_20020_4470)"/>
</g>
<g filter="url(#filter2_f_20020_4470)">
<path d="M21.5971 26.4431C22.0002 26.7342 23.3484 27.3165 25.5163 27.3165" stroke="url(#paint8_linear_20020_4470)" stroke-width="0.5" stroke-linecap="round"/>
</g>
<g filter="url(#filter3_f_20020_4470)">
<path d="M11.3848 6.98138L23.4336 11.8188" stroke="url(#paint9_linear_20020_4470)" stroke-width="2" stroke-linecap="round"/>
</g>
<g filter="url(#filter4_f_20020_4470)">
<path d="M24.0609 12.2812L21.1859 19.7188" stroke="url(#paint10_linear_20020_4470)" stroke-width="2" stroke-linecap="round"/>
</g>
<defs>
<filter id="filter0_i_20020_4470" x="5.75165" y="3.20825" width="21.9968" height="25.0417" filterUnits="userSpaceOnUse" color-interpolation-filters="sRGB">
<feFlood flood-opacity="0" result="BackgroundImageFix"/>
<feBlend mode="normal" in="SourceGraphic" in2="BackgroundImageFix" result="shape"/>
<feColorMatrix in="SourceAlpha" type="matrix" values="0 0 0 0 0 0 0 0 0 0 0 0 0 0 0 0 0 0 127 0" result="hardAlpha"/>
<feOffset dx="1.5" dy="-1"/>
<feGaussianBlur stdDeviation="1.5"/>
<feComposite in2="hardAlpha" operator="arithmetic" k2="-1" k3="1"/>
<feColorMatrix type="matrix" values="0 0 0 0 0.517647 0 0 0 0 0.368627 0 0 0 0 0.305882 0 0 0 1 0"/>
<feBlend mode="normal" in2="shape" result="effect1_innerShadow_20020_4470"/>
</filter>
<filter id="filter1_f_20020_4470" x="19.0154" y="23.3094" width="3.1557" height="3.38391" filterUnits="userSpaceOnUse" color-interpolation-filters="sRGB">
<feFlood flood-opacity="0" result="BackgroundImageFix"/>
<feBlend mode="normal" in="SourceGraphic" in2="BackgroundImageFix" result="shape"/>
<feGaussianBlur stdDeviation="0.25" result="effect1_foregroundBlur_20020_4470"/>
</filter>
<filter id="filter2_f_20020_4470" x="20.8471" y="25.6931" width="5.41919" height="2.37341" filterUnits="userSpaceOnUse" color-interpolation-filters="sRGB">
<feFlood flood-opacity="0" result="BackgroundImageFix"/>
<feBlend mode="normal" in="SourceGraphic" in2="BackgroundImageFix" result="shape"/>
<feGaussianBlur stdDeviation="0.25" result="effect1_foregroundBlur_20020_4470"/>
</filter>
<filter id="filter3_f_20020_4470" x="9.38452" y="4.98114" width="16.0493" height="8.83795" filterUnits="userSpaceOnUse" color-interpolation-filters="sRGB">
<feFlood flood-opacity="0" result="BackgroundImageFix"/>
<feBlend mode="normal" in="SourceGraphic" in2="BackgroundImageFix" result="shape"/>
<feGaussianBlur stdDeviation="0.5" result="effect1_foregroundBlur_20020_4470"/>
</filter>
<filter id="filter4_f_20020_4470" x="19.1857" y="10.281" width="6.87549" height="11.438" filterUnits="userSpaceOnUse" color-interpolation-filters="sRGB">
<feFlood flood-opacity="0" result="BackgroundImageFix"/>
<feBlend mode="normal" in="SourceGraphic" in2="BackgroundImageFix" result="shape"/>
<feGaussianBlur stdDeviation="0.5" result="effect1_foregroundBlur_20020_4470"/>
</filter>
<linearGradient id="paint0_linear_20020_4470" x1="15.5922" y1="5.5625" x2="21.3401" y2="30.4677" gradientUnits="userSpaceOnUse">
<stop stop-color="#C29B7C"/>
<stop offset="1" stop-color="#BC8E7E"/>
</linearGradient>
<radialGradient id="paint1_radial_20020_4470" cx="0" cy="0" r="1" gradientUnits="userSpaceOnUse" gradientTransform="translate(22.6769 24.6719) rotate(138.945) scale(1.92701 3.7229)">
<stop stop-color="#C89E80"/>
<stop offset="1" stop-color="#C89E80" stop-opacity="0"/>
</radialGradient>
<linearGradient id="paint2_linear_20020_4470" x1="20.8422" y1="28.75" x2="20.8422" y2="27.0312" gradientUnits="userSpaceOnUse">
<stop stop-color="#9A577F"/>
<stop offset="1" stop-color="#9A577F" stop-opacity="0"/>
</linearGradient>
<radialGradient id="paint3_radial_20020_4470" cx="0" cy="0" r="1" gradientUnits="userSpaceOnUse" gradientTransform="translate(19.2394 14.9062) rotate(-20.4125) scale(2.35197 1.04112)">
<stop stop-color="#754F42"/>
<stop offset="0.847395" stop-color="#754F42" stop-opacity="0"/>
</radialGradient>
<radialGradient id="paint4_radial_20020_4470" cx="0" cy="0" r="1" gradientUnits="userSpaceOnUse" gradientTransform="translate(19.2394 14.9062) rotate(-20.4125) scale(2.35197 0.344999)">
<stop stop-color="#B5887A"/>
<stop offset="0.847395" stop-color="#B5887A" stop-opacity="0"/>
</radialGradient>
<radialGradient id="paint5_radial_20020_4470" cx="0" cy="0" r="1" gradientUnits="userSpaceOnUse" gradientTransform="translate(11.893 13.766) rotate(-79.1499) scale(5.19919 12.3762)">
<stop stop-color="#91577E"/>
<stop offset="1" stop-color="#9F5888" stop-opacity="0"/>
</radialGradient>
<radialGradient id="paint6_radial_20020_4470" cx="0" cy="0" r="1" gradientUnits="userSpaceOnUse" gradientTransform="translate(14.5676 22.7187) rotate(-39.274) scale(8.19471 3.72918)">
<stop stop-color="#91577E"/>
<stop offset="1" stop-color="#9F5888" stop-opacity="0"/>
</radialGradient>
<linearGradient id="paint7_linear_20020_4470" x1="19.9399" y1="25.592" x2="22.4257" y2="24.4946" gradientUnits="userSpaceOnUse">
<stop stop-color="#CEA391"/>
<stop offset="1" stop-color="#CEA391" stop-opacity="0"/>
</linearGradient>
<linearGradient id="paint8_linear_20020_4470" x1="25.3819" y1="27.3165" x2="20.3654" y2="27.3165" gradientUnits="userSpaceOnUse">
<stop stop-color="#C79D8A"/>
<stop offset="1" stop-color="#C79D8A" stop-opacity="0"/>
</linearGradient>
<linearGradient id="paint9_linear_20020_4470" x1="22.9636" y1="11.8188" x2="8.36175" y2="6.46833" gradientUnits="userSpaceOnUse">
<stop stop-color="#CBA28B"/>
<stop offset="1" stop-color="#CBA28B" stop-opacity="0"/>
</linearGradient>
<linearGradient id="paint10_linear_20020_4470" x1="25.0847" y1="11.064" x2="27.4054" y2="13.924" gradientUnits="userSpaceOnUse">
<stop stop-color="#CBA28B"/>
<stop offset="1" stop-color="#CBA28B" stop-opacity="0"/>
</linearGradient>
</defs>
</svg>

<svg width="32" height="32" fill="none" xmlns="http://www.w3.org/2000/svg"><g filter="url(#a)"><path d="m12.592 4.672 11.459 5.066a3.25 3.25 0 0 1 1.68 4.243l-3.983 9.55c-.28.661.09 1.165.516 1.516.827.68 1.991 1.27 2.772 1.341a.95.95 0 1 1 .275 1.861l-.012.001H19.02a1.5 1.5 0 0 1-1.43-1.956l.469-1.467a3 3 0 0 0 .135-1.117l-.235-3.82c0-2.007.556-3.996 1.907-4.796l.309-.241c.097-.091.12-.125.12-.212a.246.246 0 0 0-.265-.246l-.89.068a9.998 9.998 0 0 1-2.577-.137L9.967 13.11C6.92 12.563 5.006 9.677 6.03 7c.93-2.434 3.828-3.469 6.562-2.328Z" fill="url(#b)"/><path d="m12.592 4.672 11.459 5.066a3.25 3.25 0 0 1 1.68 4.243l-3.983 9.55c-.28.661.09 1.165.516 1.516.827.68 1.991 1.27 2.772 1.341a.95.95 0 1 1 .275 1.861l-.012.001H19.02a1.5 1.5 0 0 1-1.43-1.956l.469-1.467a3 3 0 0 0 .135-1.117l-.235-3.82c0-2.007.556-3.996 1.907-4.796l.309-.241c.097-.091.12-.125.12-.212a.246.246 0 0 0-.265-.246l-.89.068a9.998 9.998 0 0 1-2.577-.137L9.967 13.11C6.92 12.563 5.006 9.677 6.03 7c.93-2.434 3.828-3.469 6.562-2.328Z" fill="url(#c)"/></g><path d="m12.592 4.672 11.459 5.066a3.25 3.25 0 0 1 1.68 4.243l-3.983 9.55c-.28.661.09 1.165.516 1.516.827.68 1.991 1.27 2.772 1.341a.95.95 0 1 1 .275 1.861l-.012.001H19.02a1.5 1.5 0 0 1-1.43-1.956l.469-1.467a3 3 0 0 0 .135-1.117l-.235-3.82c0-2.007.556-3.996 1.907-4.796l.309-.241c.097-.091.12-.125.12-.212a.246.246 0 0 0-.265-.246l-.89.068a9.998 9.998 0 0 1-2.577-.137L9.967 13.11C6.92 12.563 5.006 9.677 6.03 7c.93-2.434 3.828-3.469 6.562-2.328Z" fill="url(#d)"/><path d="m12.592 4.672 11.459 5.066a3.25 3.25 0 0 1 1.68 4.243l-3.983 9.55c-.28.661.09 1.165.516 1.516.827.68 1.991 1.27 2.772 1.341a.95.95 0 1 1 .275 1.861l-.012.001H19.02a1.5 1.5 0 0 1-1.43-1.956l.469-1.467a3 3 0 0 0 .135-1.117l-.235-3.82c0-2.007.556-3.996 1.907-4.796l.309-.241c.097-.091.12-.125.12-.212a.246.246 0 0 0-.265-.246l-.89.068a9.998 9.998 0 0 1-2.577-.137L9.967 13.11C6.92 12.563 5.006 9.677 6.03 7c.93-2.434 3.828-3.469 6.562-2.328Z" fill="url(#e)"/><path d="m12.592 4.672 11.459 5.066a3.25 3.25 0 0 1 1.68 4.243l-3.983 9.55c-.28.661.09 1.165.516 1.516.827.68 1.991 1.27 2.772 1.341a.95.95 0 1 1 .275 1.861l-.012.001H19.02a1.5 1.5 0 0 1-1.43-1.956l.469-1.467a3 3 0 0 0 .135-1.117l-.235-3.82c0-2.007.556-3.996 1.907-4.796l.309-.241c.097-.091.12-.125.12-.212a.246.246 0 0 0-.265-.246l-.89.068a9.998 9.998 0 0 1-2.577-.137L9.967 13.11C6.92 12.563 5.006 9.677 6.03 7c.93-2.434 3.828-3.469 6.562-2.328Z" fill="url(#f)"/><path d="m12.592 4.672 11.459 5.066a3.25 3.25 0 0 1 1.68 4.243l-3.983 9.55c-.28.661.09 1.165.516 1.516.827.68 1.991 1.27 2.772 1.341a.95.95 0 1 1 .275 1.861l-.012.001H19.02a1.5 1.5 0 0 1-1.43-1.956l.469-1.467a3 3 0 0 0 .135-1.117l-.235-3.82c0-2.007.556-3.996 1.907-4.796l.309-.241c.097-.091.12-.125.12-.212a.246.246 0 0 0-.265-.246l-.89.068a9.998 9.998 0 0 1-2.577-.137L9.967 13.11C6.92 12.563 5.006 9.677 6.03 7c.93-2.434 3.828-3.469 6.562-2.328Z" fill="url(#g)"/><path d="m12.592 4.672 11.459 5.066a3.25 3.25 0 0 1 1.68 4.243l-3.983 9.55c-.28.661.09 1.165.516 1.516.827.68 1.991 1.27 2.772 1.341a.95.95 0 1 1 .275 1.861l-.012.001H19.02a1.5 1.5 0 0 1-1.43-1.956l.469-1.467a3 3 0 0 0 .135-1.117l-.235-3.82c0-2.007.556-3.996 1.907-4.796l.309-.241c.097-.091.12-.125.12-.212a.246.246 0 0 0-.265-.246l-.89.068a9.998 9.998 0 0 1-2.577-.137L9.967 13.11C6.92 12.563 5.006 9.677 6.03 7c.93-2.434 3.828-3.469 6.562-2.328Z" fill="url(#h)"/><g filter="url(#i)"><path d="m19.875 23.81 1.447.306c0 .45.213.672.35.834l-.895 1.243-.357-.783-.42.22a.33.33 0 1 1-.3-.59l.498-.243-.323-.988Z" fill="url(#j)"/></g><g filter="url(#k)"><path d="M21.597 26.443c.403.291 1.751.873 3.92.873" stroke="url(#l)" stroke-width=".5" stroke-linecap="round"/></g><g filter="url(#m)"><path d="m11.385 6.981 12.049 4.838" stroke="url(#n)" stroke-width="2" stroke-linecap="round"/></g><g filter="url(#o)"><path d="m24.06 12.281-2.874 7.438" stroke="url(#p)" stroke-width="2" stroke-linecap="round"/></g><defs><linearGradient id="b" x1="15.592" y1="5.563" x2="21.34" y2="30.468" gradientUnits="userSpaceOnUse"><stop stop-color="#C29B7C"/><stop offset="1" stop-color="#BC8E7E"/></linearGradient><linearGradient id="d" x1="20.842" y1="28.75" x2="20.842" y2="27.031" gradientUnits="userSpaceOnUse"><stop stop-color="#9A577F"/><stop offset="1" stop-color="#9A577F" stop-opacity="0"/></linearGradient><linearGradient id="j" x1="19.94" y1="25.592" x2="22.426" y2="24.495" gradientUnits="userSpaceOnUse"><stop stop-color="#CEA391"/><stop offset="1" stop-color="#CEA391" stop-opacity="0"/></linearGradient><linearGradient id="l" x1="25.382" y1="27.317" x2="20.365" y2="27.317" gradientUnits="userSpaceOnUse"><stop stop-color="#C79D8A"/><stop offset="1" stop-color="#C79D8A" stop-opacity="0"/></linearGradient><linearGradient id="n" x1="22.964" y1="11.819" x2="8.362" y2="6.468" gradientUnits="userSpaceOnUse"><stop stop-color="#CBA28B"/><stop offset="1" stop-color="#CBA28B" stop-opacity="0"/></linearGradient><linearGradient id="p" x1="25.085" y1="11.064" x2="27.405" y2="13.924" gradientUnits="userSpaceOnUse"><stop stop-color="#CBA28B"/><stop offset="1" stop-color="#CBA28B" stop-opacity="0"/></linearGradient><radialGradient id="c" cx="0" cy="0" r="1" gradientUnits="userSpaceOnUse" gradientTransform="rotate(138.945 6.72 16.581) scale(1.92701 3.7229)"><stop stop-color="#C89E80"/><stop offset="1" stop-color="#C89E80" stop-opacity="0"/></radialGradient><radialGradient id="e" cx="0" cy="0" r="1" gradientUnits="userSpaceOnUse" gradientTransform="matrix(2.20428 -.82031 .36312 .97574 19.24 14.906)"><stop stop-color="#754F42"/><stop offset=".847" stop-color="#754F42" stop-opacity="0"/></radialGradient><radialGradient id="f" cx="0" cy="0" r="1" gradientUnits="userSpaceOnUse" gradientTransform="matrix(2.20428 -.82031 .12033 .32334 19.24 14.906)"><stop stop-color="#B5887A"/><stop offset=".847" stop-color="#B5887A" stop-opacity="0"/></radialGradient><radialGradient id="g" cx="0" cy="0" r="1" gradientUnits="userSpaceOnUse" gradientTransform="rotate(-79.15 14.274 -.311) scale(5.19919 12.3762)"><stop stop-color="#91577E"/><stop offset="1" stop-color="#9F5888" stop-opacity="0"/></radialGradient><radialGradient id="h" cx="0" cy="0" r="1" gradientUnits="userSpaceOnUse" gradientTransform="matrix(6.34375 -5.1875 2.36068 2.88686 14.568 22.719)"><stop stop-color="#91577E"/><stop offset="1" stop-color="#9F5888" stop-opacity="0"/></radialGradient><filter id="a" x="5.752" y="3.208" width="21.997" height="25.042" filterUnits="userSpaceOnUse" color-interpolation-filters="sRGB"><feFlood flood-opacity="0" result="BackgroundImageFix"/><feBlend in="SourceGraphic" in2="BackgroundImageFix" result="shape"/><feColorMatrix in="SourceAlpha" values="0 0 0 0 0 0 0 0 0 0 0 0 0 0 0 0 0 0 127 0" result="hardAlpha"/><feOffset dx="1.5" dy="-1"/><feGaussianBlur stdDeviation="1.5"/><feComposite in2="hardAlpha" operator="arithmetic" k2="-1" k3="1"/><feColorMatrix values="0 0 0 0 0.517647 0 0 0 0 0.368627 0 0 0 0 0.305882 0 0 0 1 0"/><feBlend in2="shape" result="effect1_innerShadow_20020_4470"/></filter><filter id="i" x="19.015" y="23.309" width="3.156" height="3.384" filterUnits="userSpaceOnUse" color-interpolation-filters="sRGB"><feFlood flood-opacity="0" result="BackgroundImageFix"/><feBlend in="SourceGraphic" in2="BackgroundImageFix" result="shape"/><feGaussianBlur stdDeviation=".25" result="effect1_foregroundBlur_20020_4470"/></filter><filter id="k" x="20.847" y="25.693" width="5.419" height="2.373" filterUnits="userSpaceOnUse" color-interpolation-filters="sRGB"><feFlood flood-opacity="0" result="BackgroundImageFix"/><feBlend in="SourceGraphic" in2="BackgroundImageFix" result="shape"/><feGaussianBlur stdDeviation=".25" result="effect1_foregroundBlur_20020_4470"/></filter><filter id="m" x="9.385" y="4.981" width="16.049" height="8.838" filterUnits="userSpaceOnUse" color-interpolation-filters="sRGB"><feFlood flood-opacity="0" result="BackgroundImageFix"/><feBlend in="SourceGraphic" in2="BackgroundImageFix" result="shape"/><feGaussianBlur stdDeviation=".5" result="effect1_foregroundBlur_20020_4470"/></filter><filter id="o" x="19.186" y="10.281" width="6.875" height="11.438" filterUnits="userSpaceOnUse" color-interpolation-filters="sRGB"><feFlood flood-opacity="0" result="BackgroundImageFix"/><feBlend in="SourceGraphic" in2="BackgroundImageFix" result="shape"/><feGaussianBlur stdDeviation=".5" result="effect1_foregroundBlur_20020_4470"/></filter></defs></svg>
